src/assets/copy.svg

<svg xmlns="http://www.w3.org/2000/svg" viewBox="0 0 32 32" width="512" height="512"><path d="M26.38 3H11.62A2.63 2.63 0 0 0 9 5.62V9H5.62A2.63 2.63 0 0 0 3 11.62v14.76A2.63 2.63 0 0 0 5.62 29h14.76A2.63 2.63 0 0 0 23 26.38V23h3.38A2.63 2.63 0 0 0 29 20.38V5.62A2.63 2.63 0 0 0 26.38 3ZM21 26.38a.62.62 0 0 1-.62.62H5.62a.62.62 0 0 1-.62-.62V11.62a.62.62 0 0 1 .62-.62h14.76a.62.62 0 0 1 .62.62Zm6-6a.62.62 0 0 1-.62.62H23v-9.38A2.63 2.63 0 0 0 20.38 9H11V5.62a.62.62 0 0 1 .62-.62h14.76a.62.62 0 0 1 .62.62Z"/></svg>

<?xml version="1.0"?>
<svg xmlns="http://www.w3.org/2000/svg" viewBox="0 0 32 32" width="512" height="512"><g id="copy"><path d="M26.38,3H11.62A2.63,2.63,0,0,0,9,5.62V9H5.62A2.63,2.63,0,0,0,3,11.62V26.38A2.63,2.63,0,0,0,5.62,29H20.38A2.63,2.63,0,0,0,23,26.38V23h3.38A2.63,2.63,0,0,0,29,20.38V5.62A2.63,2.63,0,0,0,26.38,3ZM21,26.38a.62.62,0,0,1-.62.62H5.62A.62.62,0,0,1,5,26.38V11.62A.62.62,0,0,1,5.62,11H20.38a.62.62,0,0,1,.62.62Zm6-6a.62.62,0,0,1-.62.62H23V11.62A2.63,2.63,0,0,0,20.38,9H11V5.62A.62.62,0,0,1,11.62,5H26.38a.62.62,0,0,1,.62.62Z"/></g></svg>
